X:67
T:Quadrille Dance.HSJJ.069
M:6/8
L:1/8
Q:3/8=120
S:HSJ Jackson,Wyresdale,Lancs.1823
R:.Quadrille
O:England
A:Lancashire
H:1823
Z:vmp.Chris Partington.
K:Bb
f/e/|d>ed fdB|G2AB2d|ege dfd|(dc).A Ffe|!
d>ed fdB|G2A (Bbg)|fdB FGA|c3B2:|!
(A/B/)|cff f=ed|{d}c2B Acf|b2ga2f|(ag).=e (cd)B|!
Aff f=ed|caa agf|gbg =ece|(g3f)g” DC”_e|]

